libs/ui/packages/crypto-icons/src/svg/GLXT.svg

<svg width="24" height="24" viewBox="0 0 24 24" fill="none">
<path d="M9.24495 3.44977C10.0243 3.19876 10.8343 3.05568 11.6524 3.02452C12.7752 2.97352 13.9039 3.15577 14.9652 3.51802C16.6955 4.12876 18.1986 5.25245 19.2739 6.73927C19.5214 7.06927 19.7299 7.42402 19.9309 7.78402C20.1642 8.24002 20.3749 8.70952 20.5339 9.19627C20.7439 9.86452 20.9014 10.5568 20.9502 11.258C20.9757 11.4095 20.9592 11.564 20.9802 11.7155C20.9877 11.9053 20.9847 12.095 20.9802 12.2863C20.9592 12.4385 20.9757 12.593 20.9502 12.7445C20.9052 13.376 20.7747 14 20.5947 14.6075C20.443 15.1093 20.2472 15.5967 20.0097 16.064C19.125 17.8013 17.7015 19.2053 15.9522 20.066C15.4644 20.3093 14.9536 20.5035 14.4274 20.6458C13.5462 20.8985 12.6274 21.0058 11.7139 20.9803C11.5617 20.9593 11.4049 20.9758 11.2557 20.9503C10.5709 20.903 9.89745 20.7538 9.2427 20.5498C7.9295 20.1235 6.7316 19.4017 5.7412 18.4397C4.7508 17.4778 3.99431 16.3015 3.52995 15.0013C3.23745 14.15 3.04995 13.2598 3.02745 12.3575C2.9967 11.9248 3.02969 11.4898 3.06494 11.0578C3.13019 10.4195 3.27495 9.78802 3.47145 9.17827C4.06844 7.38973 5.21033 5.83294 6.73695 4.72627C7.06695 4.47877 7.4217 4.26877 7.7817 4.06927C8.25058 3.82077 8.74017 3.61349 9.24495 3.44977ZM10.9774 6.69727V8.79877C10.9729 8.83627 11.0074 8.85727 11.0262 8.88277C11.3487 9.22177 11.6742 9.55777 11.9967 9.89752C11.9944 8.83077 11.9944 7.76402 11.9967 6.69727C11.6577 6.69727 11.3164 6.69502 10.9767 6.69727H10.9774ZM6.54495 7.78477C6.6222 7.83577 6.67845 7.91002 6.7437 7.97377C7.4382 8.67502 8.13495 9.37402 8.82645 10.0798C9.4602 10.7203 10.0962 11.3585 10.7269 11.999C9.9627 12.782 9.1842 13.5515 8.4222 14.3345C7.81245 14.9495 7.20195 15.5645 6.59445 16.1788C6.57838 16.1918 6.56187 16.2043 6.54495 16.2163C7.4427 16.2163 8.3427 16.2185 9.2427 16.2118C10.1614 15.2503 11.0847 14.2918 12.0012 13.3288C12.9199 14.2895 13.8409 15.2503 14.7597 16.2118C15.6574 16.2185 16.5552 16.214 17.4522 16.2163C17.3149 16.106 17.2069 15.9688 17.0787 15.8488C16.4359 15.1993 15.7887 14.549 15.1474 13.8973C14.5257 13.2635 13.8927 12.6395 13.2754 12.0013C13.4254 11.8513 13.5649 11.6953 13.7194 11.5475C14.8954 10.3625 16.0669 9.17302 17.2422 7.98727C17.3127 7.91977 17.3712 7.84027 17.4522 7.78477C16.5522 7.78477 15.6552 7.78177 14.7574 7.78627C13.8387 8.74702 12.9177 9.70627 11.9989 10.6663C11.0824 9.70327 10.1592 8.74477 9.24045 7.78627C8.3427 7.78402 7.4427 7.78402 6.54495 7.78402V7.78477ZM12.0034 14.096C12.0034 15.1663 12.0057 16.235 12.0012 17.306C12.3424 17.303 12.6837 17.306 13.0227 17.306V15.2015C13.0241 15.1903 13.0227 15.1788 13.0187 15.1682C13.0146 15.1576 13.008 15.1482 12.9994 15.1408C12.8269 14.9533 12.6439 14.7785 12.4737 14.5918C12.3192 14.423 12.1534 14.2693 12.0034 14.096Z" fill="#005396"/>
</svg>

<svg width="24" height="24" viewBox="0 0 24 24" fill="none"><path fill="#005396" d="M9.245 3.45a9.03 9.03 0 0 1 5.72.068 9 9 0 0 1 4.309 3.221c.247.33.456.685.657 1.045.233.456.444.926.603 1.412.21.669.367 1.36.416 2.062.026.152.01.306.03.458.008.19.005.379 0 .57-.02.152-.004.307-.03.459a9 9 0 0 1-.94 3.319 9.02 9.02 0 0 1-4.058 4.002 8.2 8.2 0 0 1-1.525.58 9 9 0 0 1-2.713.334c-.152-.02-.31-.004-.458-.03a8.8 8.8 0 0 1-2.013-.4A9.03 9.03 0 0 1 3.53 15a8.8 8.8 0 0 1-.503-2.643c-.03-.433.003-.868.038-1.3.065-.639.21-1.27.406-1.88a9.03 9.03 0 0 1 3.266-4.452 9 9 0 0 1 1.045-.657 9 9 0 0 1 1.463-.62m1.732 3.247V8.8c-.004.037.03.058.05.084l.97 1.015a742 742 0 0 1 0-3.2c-.34 0-.68-.003-1.02 0M6.545 7.785c.077.05.133.125.199.189.694.701 1.391 1.4 2.082 2.106q.953.959 1.9 1.919c-.763.783-1.542 1.553-2.304 2.335L6.594 16.18l-.05.037c.899 0 1.799.002 2.699-.004.918-.962 1.842-1.92 2.758-2.883q1.38 1.44 2.759 2.883c.897.006 1.795.002 2.692.004-.137-.11-.245-.247-.373-.367-.643-.65-1.29-1.3-1.932-1.952-.621-.633-1.254-1.258-1.872-1.896.15-.15.29-.306.444-.453 1.176-1.185 2.348-2.375 3.523-3.56.07-.068.13-.148.21-.203-.9 0-1.797-.003-2.695.001-.918.961-1.84 1.92-2.758 2.88-.917-.963-1.84-1.921-2.759-2.88q-1.347-.002-2.695-.002m5.458 6.311c0 1.07.003 2.139-.002 3.21.341-.003.683 0 1.022 0v-2.105a.07.07 0 0 0-.024-.06c-.172-.188-.355-.363-.525-.55-.155-.168-.32-.322-.47-.495"/></svg>
